app/themes/uggwc_pro/assets/images/thema/Sozialwissenschaften.svg

<svg width="16" height="16" viewBox="0 0 16 16" fill="none" xmlns="http://www.w3.org/2000/svg">
<path d="M3.6 6C4.705 6 5.6 5.105 5.6 4C5.6 2.895 4.705 2 3.6 2C2.495 2 1.6 2.895 1.6 4C1.6 5.105 2.495 6 3.6 6ZM12.8 6C13.905 6 14.8 5.105 14.8 4C14.8 2.895 13.905 2 12.8 2C11.695 2 10.8 2.895 10.8 4C10.8 5.105 11.695 6 12.8 6ZM0 9.4675C0 9.76 0.24 10 0.5325 10H5.8675C5.8725 10 5.8775 10 5.885 10C5.22 9.4125 4.8025 8.555 4.8025 7.6C4.8025 7.41 4.82 7.225 4.85 7.0425C4.51 6.885 4.1325 6.8 3.735 6.8H2.6675C1.195 6.8 0 7.995 0 9.4675ZM8 10C8.6 10 9.1475 9.78 9.5675 9.4175C9.63 9.325 9.6975 9.235 9.7675 9.15C9.835 9.0675 9.91 8.9975 9.9925 8.9425C10.25 8.5575 10.4 8.0975 10.4 7.6C10.4 6.275 9.325 5.2 8 5.2C6.675 5.2 5.6 6.275 5.6 7.6C5.6 8.925 6.675 10 8 10ZM9.635 11.505C9.3775 11.3575 9.1825 11.1 9.115 10.8H6.5325C4.6925 10.8 3.2 12.2925 3.2 14.1325C3.2 14.5 3.4975 14.8 3.8675 14.8H11.38C11.3275 14.67 11.3 14.5275 11.3 14.39V14.315C11.2675 14.2975 11.2325 14.2775 11.2 14.2575L11.135 14.295C10.715 14.5375 10.1225 14.495 9.7675 14.0525C9.655 13.9125 9.5525 13.765 9.4575 13.6125L9.455 13.6075L9.4525 13.6025L9.3925 13.5L9.39 13.495L9.3875 13.49C9.3025 13.335 9.2275 13.175 9.1625 13.0075C8.9575 12.4775 9.2175 11.9425 9.6375 11.7L9.705 11.6625C9.705 11.6425 9.705 11.625 9.705 11.605C9.705 11.585 9.705 11.5675 9.705 11.5475L9.6375 11.51L9.635 11.505ZM13.3325 6.8H12.2675C11.87 6.8 11.4925 6.8875 11.1525 7.0425C11.185 7.2225 11.2 7.41 11.2 7.6C11.2 8.035 11.1125 8.4475 10.9575 8.825C11.02 8.8475 11.08 8.875 11.135 8.9075L11.2 8.945C11.2325 8.925 11.265 8.905 11.3 8.8875V8.8125C11.3 8.3275 11.6325 7.835 12.195 7.7475C12.3925 7.7175 12.595 7.7 12.8 7.7C13.005 7.7 13.2075 7.715 13.405 7.7475C13.9675 7.835 14.3 8.3275 14.3 8.8125V8.8875C14.3325 8.905 14.3675 8.925 14.4 8.945L14.465 8.9075C14.885 8.665 15.4775 8.7075 15.8325 9.15C15.89 9.22 15.945 9.295 15.9975 9.3675C15.945 7.94 14.7725 6.8 13.3325 6.8ZM15.615 10.8975C15.7725 10.8075 15.8525 10.62 15.785 10.4475C15.7325 10.31 15.67 10.1775 15.6 10.05L15.5425 9.95C15.465 9.8225 15.38 9.7025 15.2875 9.5875C15.1725 9.445 14.97 9.42 14.8125 9.5125L14.36 9.775C14.1375 9.585 13.8825 9.435 13.6 9.335V8.81C13.6 8.6275 13.4775 8.465 13.2975 8.4375C13.135 8.4125 12.97 8.4 12.8 8.4C12.63 8.4 12.465 8.4125 12.3025 8.4375C12.1225 8.465 12 8.6275 12 8.81V9.335C11.72 9.435 11.4625 9.585 11.24 9.775L10.785 9.5125C10.6275 9.4225 10.425 9.4475 10.31 9.5875C10.2175 9.7025 10.1325 9.825 10.055 9.9525L9.9975 10.05C9.9275 10.1775 9.865 10.31 9.8125 10.4475C9.7475 10.6175 9.825 10.805 9.9825 10.895L10.4375 11.1575C10.4125 11.3 10.3975 11.4475 10.3975 11.5975C10.3975 11.7475 10.4125 11.895 10.4375 12.035L9.9825 12.2975C9.825 12.3875 9.745 12.575 9.8125 12.745C9.865 12.8825 9.9275 13.0125 9.9975 13.14L10.0575 13.2425C10.1325 13.37 10.2175 13.49 10.31 13.605C10.425 13.7475 10.6275 13.7725 10.785 13.68L11.24 13.425C11.4625 13.615 11.72 13.765 12 13.865V14.39C12 14.5725 12.1225 14.735 12.3025 14.7625C12.465 14.7875 12.63 14.8 12.8 14.8C12.97 14.8 13.135 14.7875 13.2975 14.7625C13.4775 14.735 13.6 14.5725 13.6 14.39V13.865C13.88 13.765 14.1375 13.615 14.36 13.425L14.815 13.6875C14.9725 13.7775 15.175 13.7525 15.29 13.6125C15.3825 13.4975 15.4675 13.3775 15.5425 13.25L15.6025 13.145C15.6725 13.0175 15.735 12.8875 15.7875 12.75C15.8525 12.58 15.775 12.3925 15.6175 12.3025L15.1625 12.04C15.1875 11.8975 15.2025 11.75 15.2025 11.6025C15.2025 11.455 15.1875 11.305 15.1625 11.1625L15.6175 10.9L15.615 10.8975ZM13.8 11.6C13.8 12.1525 13.3525 12.6 12.8 12.6C12.2475 12.6 11.8 12.1525 11.8 11.6C11.8 11.0475 12.2475 10.6 12.8 10.6C13.3525 10.6 13.8 11.0475 13.8 11.6Z" fill="#6E6CFF"/>
</svg>

<svg width="16" height="16" fill="none" xmlns="http://www.w3.org/2000/svg"><path d="M3.6 6a2 2 0 1 0 .001-3.999A2 2 0 0 0 3.6 6zm9.2 0a2 2 0 1 0 .001-3.999A2 2 0 0 0 12.8 6zM0 9.467C0 9.76.24 10 .532 10h5.353A3.192 3.192 0 0 1 4.85 7.043 2.643 2.643 0 0 0 3.735 6.8H2.668A2.668 2.668 0 0 0 0 9.467zM8 10c.6 0 1.148-.22 1.568-.582.062-.093.13-.183.2-.268.067-.082.142-.152.224-.207A2.403 2.403 0 0 0 8 5.2 2.4 2.4 0 0 0 8 10zm1.635 1.505a1.096 1.096 0 0 1-.52-.705H6.532A3.333 3.333 0 0 0 3.2 14.132c0 .368.297.668.667.668h7.513a1.108 1.108 0 0 1-.08-.41v-.075a2.047 2.047 0 0 1-.1-.057l-.065.037c-.42.242-1.012.2-1.367-.242a4.494 4.494 0 0 1-.31-.44l-.003-.005-.002-.006-.06-.102-.003-.005-.003-.005a4.04 4.04 0 0 1-.225-.482c-.205-.53.055-1.065.475-1.308l.068-.037v-.116l-.068-.037-.002-.005zM13.332 6.8h-1.065c-.397 0-.774.088-1.114.243a3.215 3.215 0 0 1-.195 1.782c.062.023.122.05.177.083l.065.037c.033-.02.065-.04.1-.058v-.075c0-.484.332-.977.895-1.064.197-.03.4-.048.605-.048.205 0 .407.015.605.047.563.088.895.58.895 1.066v.074l.1.058.065-.037c.42-.243 1.012-.2 1.367.242.058.07.113.145.165.217A2.666 2.666 0 0 0 13.332 6.8zm2.283 4.098a.367.367 0 0 0 .17-.45 3.194 3.194 0 0 0-.185-.398l-.057-.1a3.368 3.368 0 0 0-.255-.362.368.368 0 0 0-.476-.075l-.452.262a2.401 2.401 0 0 0-.76-.44V8.81a.368.368 0 0 0-.303-.373 3.26 3.26 0 0 0-.995 0A.368.368 0 0 0 12 8.81v.525c-.28.1-.537.25-.76.44l-.455-.263a.373.373 0 0 0-.475.075 3.4 3.4 0 0 0-.255.366l-.057.097c-.07.127-.133.26-.185.397a.367.367 0 0 0 .17.448l.454.263a2.497 2.497 0 0 0 0 .877l-.454.262a.365.365 0 0 0-.17.448c.052.138.114.268.184.395l.06.102c.075.128.16.248.253.363a.368.368 0 0 0 .475.075l.455-.255c.223.19.48.34.76.44v.525c0 .182.123.345.303.372a3.26 3.26 0 0 0 .994 0 .368.368 0 0 0 .303-.372v-.525c.28-.1.537-.25.76-.44l.455.262c.158.09.36.066.475-.074a3.03 3.03 0 0 0 .253-.363l.06-.105a3.16 3.16 0 0 0 .184-.395.367.367 0 0 0-.17-.447l-.455-.263c.025-.142.04-.29.04-.438 0-.147-.014-.297-.04-.44l.455-.262-.002-.002zM13.8 11.6a1 1 0 1 1-2 0 1 1 0 0 1 2 0z" fill="#6E6CFF"/></svg>
